X: 55
M:4/4
L:1/8
K:A
e2 cA eAcA|e2 cA BEEE|e2 cA eAcA|(3Bcd cA BAFB|
a2 ga fgeg|fedf ecAc|defd cdec|(3Bcd cA BAFB||

